assets/icons/update/_.svg

<?xml version="1.0" encoding="UTF-8" standalone="no"?>
<svg
   viewBox="0 0 24 24"
   height="24"
   id="svg7384"
   version="1.1"
   width="24"
   sodipodi:docname="_.svg"
   inkscape:version="1.2 (1:1.2.1+202207142221+cd75a1ee6d)"
   xmlns:inkscape="http://www.inkscape.org/namespaces/inkscape"
   xmlns:sodipodi="http://sodipodi.sourceforge.net/DTD/sodipodi-0.dtd"
   xmlns="http://www.w3.org/2000/svg"
   xmlns:svg="http://www.w3.org/2000/svg"
   xmlns:rdf="http://www.w3.org/1999/02/22-rdf-syntax-ns#"
   xmlns:cc="http://creativecommons.org/ns#"
   xmlns:dc="http://purl.org/dc/elements/1.1/">
  <sodipodi:namedview
     id="namedview21"
     pagecolor="#ffffff"
     bordercolor="#666666"
     borderopacity="1.0"
     inkscape:pageshadow="2"
     inkscape:pageopacity="0.0"
     inkscape:pagecheckerboard="0"
     showgrid="true"
     inkscape:snap-page="true"
     inkscape:zoom="28"
     inkscape:cx="18.75"
     inkscape:cy="13.910714"
     inkscape:window-width="1920"
     inkscape:window-height="1016"
     inkscape:window-x="0"
     inkscape:window-y="0"
     inkscape:window-maximized="1"
     inkscape:current-layer="svg7384"
     inkscape:showpageshadow="2"
     inkscape:deskcolor="#d1d1d1">
    <inkscape:grid
       type="xygrid"
       id="grid837" />
    <inkscape:grid
       type="xygrid"
       id="grid922"
       dotted="true"
       spacingx="0.5"
       spacingy="0.5"
       empspacing="10" />
  </sodipodi:namedview>
  <metadata
     id="metadata20854">
    <rdf:RDF>
      <cc:Work
         rdf:about="">
        <dc:format>image/svg+xml</dc:format>
        <dc:type
           rdf:resource="http://purl.org/dc/dcmitype/StillImage" />
      </cc:Work>
    </rdf:RDF>
  </metadata>
  <defs
     id="defs7386">
    <linearGradient
       id="linearGradient5606"
       inkscape:swatch="solid">
      <stop
         id="stop5608"
         offset="0"
         style="stop-color:#000000;stop-opacity:1;" />
    </linearGradient>
    <linearGradient
       id="linearGradient4526"
       inkscape:swatch="solid">
      <stop
         id="stop4528"
         offset="0"
         style="stop-color:#ffffff;stop-opacity:1;" />
    </linearGradient>
    <linearGradient
       id="linearGradient3600-4"
       inkscape:swatch="gradient">
      <stop
         id="stop3602-7"
         offset="0"
         style="stop-color:#f4f4f4;stop-opacity:1" />
      <stop
         id="stop3604-6"
         offset="1"
         style="stop-color:#dbdbdb;stop-opacity:1" />
    </linearGradient>
  </defs>
  <g
     id="layer9"
     label="status"
     style="display:inline;stroke-width:0.8"
     transform="matrix(1.25,0,0,1.25,-589.25025,-139.25)" />
  <g
     id="layer2"
     style="display:inline;stroke-width:0.8"
     transform="matrix(1.25,0,0,1.25,-288,-598)" />
  <g
     id="layer4"
     style="display:inline;stroke-width:0.8"
     transform="matrix(1.25,0,0,1.25,-288,-598)" />
  <g
     id="g1812"
     style="display:inline;stroke-width:0.8"
     transform="matrix(1.25,0,0,1.25,-288,-598)" />
  <g
     id="g6217"
     style="display:inline;stroke-width:0.8"
     transform="matrix(1.25,0,0,1.25,-288,-598)" />
  <g
     id="layer3"
     style="display:inline;stroke-width:0.8"
     transform="matrix(1.25,0,0,1.25,-288,-598)" />
  <g
     id="g1833"
     style="display:inline;stroke-width:0.8"
     transform="matrix(1.25,0,0,1.25,-288,-598)" />
  <path
     id="path1001"
     style="color:#000000;fill:#808080;opacity:1"
     d="M 10.291016 2 C 9.5851082 3.3337945 7.9765907 6.6402583 5.5917969 13 L 4 13 C 2.8920022 13 2 13.892002 2 15 C 2 16.107998 2.8920022 17 4 17 L 4.1347656 17 C 3.5923133 18.534217 3.0234579 20.187151 2.4199219 22 L 5.5839844 22 C 6.2150541 20.11805 6.7797447 18.499491 7.3125 17 L 16.623047 17 C 17.167449 18.498833 17.745906 20.117389 18.398438 22 L 21.568359 22 C 20.943477 20.187342 20.357586 18.534464 19.802734 17 L 20 17 C 21.107998 17 22 16.107998 22 15 C 22 13.892002 21.107998 13 20 13 L 18.320312 13 C 15.905549 6.632036 14.342046 3.2980576 13.6875 2 L 10.291016 2 z M 11.972656 5.46875 C 12.665464 6.9264994 13.652273 9.1222663 15.138672 13 L 8.7734375 13 C 10.253225 9.1009013 11.262754 6.9003922 11.972656 5.46875 z M 4 14 L 20 14 C 20.553999 14 21 14.446001 21 15 C 21 15.553999 20.553999 16 20 16 L 4 16 C 3.4460006 16 3 15.553999 3 15 C 3 14.446001 3.4460006 14 4 14 z " />
  <path
     id="rect1004"
     style="opacity:1;fill:#808080;fill-rule:evenodd;stroke-width:3;stroke-linecap:square;stroke-linejoin:round"
     d="m 4,14.5 h 10.5 c 0.277,0 0.5,0.223 0.5,0.5 0,0.277 -0.223,0.5 -0.5,0.5 h -10.5 c -0.277,0 -0.5,-0.223 -0.5,-0.5 0,-0.277 0.223,-0.5 0.5,-0.5 z" />
</svg>

<svg height="24" width="24" xmlns="http://www.w3.org/2000/svg"><path style="color:#000;fill:gray;opacity:1" d="M10.291 2c-.706 1.334-2.314 4.64-4.7 11H4c-1.108 0-2 .892-2 2s.892 2 2 2h.135a285.118 285.118 0 0 0-1.715 5h3.164c.631-1.882 1.196-3.5 1.729-5h9.31a352.745 352.745 0 0 1 1.775 5h3.17a351.81 351.81 0 0 0-1.765-5H20c1.108 0 2-.892 2-2s-.892-2-2-2h-1.68c-2.414-6.368-3.978-9.702-4.633-11h-3.396zm1.682 3.469c.692 1.457 1.68 3.653 3.166 7.531H8.773c1.48-3.9 2.49-6.1 3.2-7.531zM4 14h16c.554 0 1 .446 1 1s-.446 1-1 1H4c-.554 0-1-.446-1-1s.446-1 1-1z"/><path style="opacity:1;fill:gray;stroke-width:3;stroke-linecap:square;stroke-linejoin:round" d="M4 14.5h10.5a.499.499 0 1 1 0 1H4a.499.499 0 1 1 0-1z"/></svg>
